!!!ONB: MCCC : IJH0458_04 : Extracted Monophonic Melody
!!!COM: Haydn, Joseph
!!!OPR: String Quartet in F-sharp minor
!!!OMV: 4
!!!SCT: Hob.III:47 ; Op.50 No.4
!!!ODT: 1787///
**kern
*thru
*k[f#c#g#]
*f#:
*clefG
*M6/8
8aa
8ff#
4b#
8dd#
=7
8cc#
16cc#
16b#
8cc#
8dd#
16dd#
16cc#
8dd#
=8
8ee
8ee#
8ff#
16gg#
16bb
16aa
16gg#
16ff#
16ee#
=9
2ff#
8ee
8dd
=10
8cc#
16cc#
16b
8cc#
8dd
16dd
16cc#
8dd
=11
8ee
16ee
16dd
8ee
8ff#
16ff#
16ee
8ff#
=12
4b
2r
=13
2.r
=14
2.r
=15
8r
8ff#
8ee
4g#
8b
=16
8a
16a
16g#
8a
8b
16b
16a
8b
=17
4cc#
16c#
16d
16e
16g
16f#
16e
16d
16c#
=18
4d
2r
=19
8r
8gg
8ff#
4a#
8cc#
=20
8b
16b
16a#
8b
8cc#
16cc#
16b
8cc#
=21
8dd
8aa
8gg#
4b#
8dd#
=22
8cc#
16cc#
16b#
8cc#
8dd#
16dd#
16cc#
8dd#
=23
4.ee
4.ff#
=24
8gg#
8ccc#
8bb
8ee
8aa
8gg#
=25
8cc#
8ff#
8ee#
4bb
8aa
=26
8gg#
8ff#
8ee#
4ff#
8r
=27
8r
8dd
8cc#
8r
8dd
8cc#
=28
8r
8ff#
8ee
8r
8ff#
8ee
=29
4g#
4b
8a#
8cc#[
=30
8cc#]
16b#
16cc#
8dd#
8cc#
8ee
8cc#
=31
8b#
16dd#
16ee
16ff#
16gg#
8aa
8gg#
8ff#
=32
8ee
16ee#
16ff#
16gg#
16aa
8bb
8aa
8gg#
=33
8ff#
16dd#
16ee
16ff#
16gg#
8aa
8gg#
8ff#
=34
8gg#
8ccc#
8bb
4dd#
8ff#
=35
8ee
16ee
16dd#
8ee
8ff#
16ff#
16ee
8ff#
=36
8gg#
8ccc#
8bb
4dd#
8ff#
=37
8ee
8ccc#
8bb
4ff#
8aa
=38
8gg#
8ccc#
8bb
8dd#
8ccc#
8bb
=39
8ee
8ccc#
8bb
8ff#
8ccc#
8bb
=40
8gg#
8ccc#
8bb
8ff#
8ccc#
8bb
=41
8ee#
8ddd
8ccc#
8ff#
8ddd
8ccc#
=42
8gg#
8ddd
8ccc#
8aa
8gg#
8ff#
=43
8ee#
8ee#
8ff#
8gg#
8gg#
8aa
=44
4bb
2r
=45
2.r
=46
2.r
=47
2.r
=48
8r
8ddd
8ccc#
4ee#
8gg#
=49
8ff#
8ddd
8ccc#
8ff#
8bb
8aa
=50
8dd
8gg#
8ff#
8ee#
8ee#
8ff#
=51
4.ee#
4.ff#
=52
4.ee#
4.ff#
=53
4ee#
8ff#
8gg#
8aa
8bb
=54
4aa#
8bb
8ccc#
8bb
8aa#
=55
4bb
8aa
8gg#
8ff#
8ee#
=56
8ff#
16ff#
16ee#
8ff#
8aa
8gg#
8ff#
=57
4ee#
4r
8G#
8B
=58
4A
4r
8e#
8g#
=59
8f#
8dd
8cc#
4e#
8g#
=60
8f#
8dd
8cc#
4g#
8b
=61
8a
8dd
8cc#
8e#
8dd
8cc#
=62
8d
8dd
8cc#
8B
8dd
8cc#
=63
8G#
8dd
8cc#
8bb
8bb
8bb
=64
4..bb
16ddd
16ccc#
16bb
16aa
16gg#
=65
8aa
8ccc#
8ccc#
8ccc#
8bb
8gg#
=66
8aa
8ccc#
8ccc#
8ccc#
8bb
8ee#
=67
8ff#
8ccc#
8ccc#
8ccc#
8bb
8gg#
=68
8aa
8fff#
8fff#
8fff#
8eee
8ccc#
=69
8ddd
8ggg
8ggg
8ggg
8ddd
8bb
=70
4.gg
4.ff#[
=71
2ff#]
8gg#
8ee#
=72
8ff#
4.r
8aa
8gg
=73
8ff#
4.r
8aa
8gg
=74
8ff#
4.r
8aa
8gg
=75
8ff#
4.r
8aa
8gg#
=76
2.ff#[
=77
8ff#]
8a
8b#
8dd#
8ff#
8aa
=78
8ff#
8dd#
8b#
8a
8f#
8d#
=79
8B#
8d#
8f#
8a
8f#
8d#
=80
8B#
8d#
8f#
8a
8f#
8d#
=81
4B#
2r
=82
8r
8dd
8cc#
4e#
8g#
=83
4f#
2r
=84
4.r
16g#
16a
16b
16dd
16cc#
16b
=85
4a
8r
16cc#
16gg#
16bb
16gg#
16bb
16gg#
=86
4ff#
2r
==
*-
